svg/muteUser.svg

<svg width="284" height="284" viewBox="0 0 284 284" fill="none" xmlns="http://www.w3.org/2000/svg">
<path fill-rule="evenodd" clip-rule="evenodd" d="M165.998 143.212C172.846 136.873 177.171 127.677 177.16 117.444C177.139 98.3931 162.141 82.9111 143.726 82.9311C133.455 82.9411 124.262 87.7761 118.138 95.3521L165.998 143.212Z" fill="#1A1919"/>
<path fill-rule="evenodd" clip-rule="evenodd" d="M122.305 150.487C104.075 159.624 91.4011 179.688 91.4261 202.903C91.4281 204.783 92.9551 206.306 94.8341 206.303L178.03 206.212L122.305 150.487Z" fill="#1A1919"/>
<path fill-rule="evenodd" clip-rule="evenodd" d="M208.706 46.3052C202.6 50.7272 196.535 55.1872 190.732 59.9672C218.623 76.5672 237.355 107.017 237.355 141.763C237.355 163.839 229.795 184.18 217.129 200.339L83.679 66.8892C98.204 55.5062 116.097 48.2302 135.603 46.8802C137.795 46.7282 140.006 46.6452 142.237 46.6452C159.938 46.6452 176.522 51.5112 190.732 59.9672C196.535 55.1872 202.6 50.7272 208.706 46.3052C189.863 33.1602 166.953 25.4452 142.237 25.4452C141.857 25.4452 141.48 25.4562 141.1 25.4592C77.384 26.0702 25.917 77.9032 25.917 141.763C25.917 170.261 36.172 196.361 53.184 216.587C56.955 209.999 61.109 203.563 64.733 196.847C53.646 181.294 47.117 162.276 47.117 141.763C47.117 121.311 53.609 102.348 64.636 86.8212L197.181 219.367C181.653 230.393 162.688 236.882 142.237 236.882C110.301 236.882 81.991 221.062 64.733 196.847C61.109 203.563 56.955 209.999 53.184 216.587C74.522 241.956 106.493 258.082 142.237 258.082C206.477 258.082 258.555 206.005 258.555 141.763C258.555 102.239 238.836 67.3252 208.706 46.3052Z" fill="#1A1919"/>
</svg>

<svg width="284" height="284" viewBox="0 0 284 284" xmlns="http://www.w3.org/2000/svg">
    <g fill="#1A1918" fill-rule="evenodd">
        <path d="M165.998 143.212c6.848-6.339 11.173-15.535 11.162-25.768-.02-19.05-15.019-34.533-33.434-34.513-10.27.01-19.464 4.845-25.588 12.421l47.86 47.86zM122.305 150.488c-18.23 9.137-30.904 29.2-30.879 52.416a3.404 3.404 0 0 0 3.408 3.4l83.196-.091-55.725-55.725z"/>
        <path d="M208.706 46.305c-6.106 4.422-12.171 8.882-17.974 13.662 27.89 16.6 46.623 47.05 46.623 81.796 0 22.076-7.56 42.417-20.226 58.576L83.679 66.89c14.525-11.383 32.418-18.659 51.924-20.009a95.851 95.851 0 0 1 6.634-.235c17.7 0 34.285 4.866 48.495 13.322 5.803-4.78 11.868-9.24 17.974-13.662-18.843-13.145-41.753-20.86-66.47-20.86-.38 0-.756.011-1.136.014-63.716.611-115.183 52.444-115.183 116.304 0 28.498 10.255 54.598 27.267 74.824 3.77-6.588 7.925-13.024 11.549-19.74-11.087-15.553-17.616-34.57-17.616-55.084 0-20.452 6.492-39.415 17.519-54.942L197.18 219.367c-15.528 11.026-34.493 17.515-54.944 17.515-31.936 0-60.246-15.82-77.504-40.035-3.624 6.716-7.778 13.152-11.55 19.74 21.339 25.37 53.31 41.495 89.054 41.495 64.24 0 116.318-52.077 116.318-116.319 0-39.524-19.72-74.438-49.85-95.458"/>
    </g>
</svg>
